static/assets/images/exchanges/bithumb.svg

<svg width="196" height="256" viewBox="0 0 196 256" fill="none" xmlns="http://www.w3.org/2000/svg">
<path d="M13.1565 60.9693H49.5963L21.2632 130.271C21.2632 130.271 6.45198 130.029 1.9232 117.088C0.654629 113.245 0.54811 109.113 1.61698 105.21L13.1565 60.9693Z" fill="#D53127"/>
<path d="M154.483 62.452L108.148 61.6462L118.576 27.2533C119.536 24.1049 119.747 20.7754 119.19 17.531C118.634 14.2867 117.326 11.2175 115.372 8.56905C113.417 5.92056 110.87 3.76619 107.933 2.27826C104.997 0.790326 101.754 0.0101071 98.462 0H56.1719L7.8219 173.657C7.8219 173.657 -9.50352 247.923 56.1719 254.643C56.1719 254.643 159.995 275.869 193.309 150.417C193.309 150.417 210.892 74.5395 154.483 62.452ZM122.814 148.579C122.814 148.579 120.961 180.619 96.7858 186.244C93.2163 187.142 89.4448 186.754 86.1327 185.148C82.3453 183.214 78.429 179.201 78.5257 170.788C78.5889 168.356 78.9792 165.944 79.6861 163.616L88.6147 130.271H112.983C112.983 130.271 124.023 133.865 122.814 148.579Z" fill="#F47320"/>
<path d="M195.533 115.444C191.101 64.4666 154.483 62.452 154.483 62.452L108.148 61.6462L88.244 130.674H112.548C117.012 130.916 125.151 138.281 122.508 151.319" fill="url(#paint0_linear_10243_725)"/>
<defs>
<linearGradient id="paint0_linear_10243_725" x1="187.023" y1="183.633" x2="113.998" y2="71.5741" gradientUnits="userSpaceOnUse">
<stop offset="0.41" stop-color="#F47320"/>
<stop offset="0.5" stop-color="#F16D21"/>
<stop offset="0.62" stop-color="#E95C22"/>
<stop offset="0.75" stop-color="#DC4125"/>
<stop offset="0.81" stop-color="#D53127"/>
</linearGradient>
</defs>
</svg>

<svg xmlns="http://www.w3.org/2000/svg" fill="none" viewBox="0 0 196 256"><path fill="#D53127" d="M13.157 60.97h36.44l-28.335 69.3s-14.811-.242-19.34-13.183a20.57 20.57 0 0 1-.306-11.878z"/><path fill="#F47320" d="m154.483 62.452-46.335-.806 10.428-34.393a21.096 21.096 0 0 0-10.643-24.975A21.1 21.1 0 0 0 98.462 0h-42.29L7.822 173.657s-17.326 74.266 48.35 80.986c0 0 103.823 21.226 137.137-104.226 0 0 17.583-75.877-38.826-87.965m-31.669 86.127s-1.853 32.04-26.028 37.665a15.66 15.66 0 0 1-10.653-1.096c-3.788-1.934-7.704-5.947-7.607-14.36a27 27 0 0 1 1.16-7.172l8.929-33.345h24.368s11.04 3.594 9.831 18.308"/><path fill="url(#paint0_linear_10243_725)" d="M195.533 115.444c-4.432-50.977-41.05-52.992-41.05-52.992l-46.335-.806-19.904 69.028h24.304c4.464.242 12.603 7.607 9.96 20.645"/><defs><linearGradient id="paint0_linear_10243_725" x1="187.023" x2="113.998" y1="183.633" y2="71.574" gradientUnits="userSpaceOnUse"><stop offset=".41" stop-color="#F47320"/><stop offset=".5" stop-color="#F16D21"/><stop offset=".62" stop-color="#E95C22"/><stop offset=".75" stop-color="#DC4125"/><stop offset=".81" stop-color="#D53127"/></linearGradient></defs></svg>
